X:0
T:Kibujt a haz az ablakon
G:dance song
M:2/4
L:1/4
Q:1/2=120
K:DDor
A>B|cd|cB|AG |\
A>B|cd|cB|AG |
F>G|AB|AG|AA |\
D>E|FG|FE|DD|]

I don't know a Scottish example of this trick.


12. Cheating
=== ========

Many Scottish tunes almost have gaps; that is, the relevant notes are
in inconspicuous places in the tune.  Often these tunes are the result
of a historical process of gap-filling.  Either going back to an older
version of the tune, or else imagining a retrograde evolution to a
gapped scale even if there never was one, may result in something
becoming playable on a diatonic instrument that otherwise couldn't do
it.  In practice, Scottish players do this instinctively all the time.

